packages/icons/src/spark.svg

<svg width="24" height="24" viewBox="0 0 24 24" fill="none" xmlns="http://www.w3.org/2000/svg">
<path fill-rule="evenodd" clip-rule="evenodd" d="M14.0167 10.3001L12.0399 6.66911L10.3114 10.1661L6.72429 11.9106L10.3276 13.7361L12.029 17.2504L13.7286 13.7402L17.3019 11.9116L14.0167 10.3001ZM21 11.4979V12.2658L15.2365 15.2152L12.4357 21H11.6224L8.82158 15.2152L3 12.2658V11.4979L8.82158 8.66667L11.6224 3H12.3195L15.4689 8.78481L21 11.4979Z" fill="black"/>
</svg>

<svg xmlns="http://www.w3.org/2000/svg" width="24" height="24" fill="none" viewBox="0 0 24 24">
  <path fill="#000" fill-rule="evenodd" d="M14.017 10.3 12.04 6.67l-1.729 3.496-3.587 1.745 3.604 1.825 1.701 3.514 1.7-3.51 3.573-1.828-3.285-1.612ZM21 11.498v.768l-5.764 2.95-2.8 5.784h-.814l-2.8-5.785L3 12.265v-.767l5.822-2.831L11.622 3h.697l3.15 5.785L21 11.498Z" clip-rule="evenodd"/>
</svg>
